StripePaymentSheet/StripePaymentSheet/Resources/StripePaymentSheet.xcassets/PaymentMethods/icon-pm-oxxo.imageset/icon-pm-oxxo-mod.svg

<svg fill="none" height="16" viewBox="0 0 20 16" width="20" xmlns="http://www.w3.org/2000/svg"><g clip-rule="evenodd" fill-rule="evenodd"><path d="m0 2.81071c0-.44592.280215-.81071.622759-.81071h18.754441c.3426 0 .6228.36479.6228.81071v10.37859c0 .4459-.2802.8107-.6228.8107h-18.754441c-.342544 0-.622759-.3648-.622759-.8107z" fill="#f0a929"/><path d="m0 4h20v8h-20z" fill="#fff"/><g fill="#e21c2a"><path d="m16.9433 6.22731c-.9147 0-1.6603.75345-1.6603 1.67761 0 .92381.7456 1.67737 1.6603 1.67737.9146 0 1.6603-.75356 1.6603-1.67737 0-.92416-.7457-1.67761-1.6603-1.67761z"/><path d="m3.25785 6.22731c-.9148 0-1.66056.75345-1.66056 1.67761 0 .92381.74576 1.67737 1.66056 1.67737.91439 0 1.66017-.75356 1.66017-1.67737 0-.92416-.74578-1.67761-1.66017-1.67761z"/><path d="m16.8132 4.75093c-1.5371-.03568-2.2597.96007-3.3084 2.18823l-.9894 1.15836 1.5667 1.89484c.3732.58224-.3392 1.16004-.7811.62724l-1.4485-1.74561-1.4114 1.65311c-.44945.5262-1.15371-.0617-.7725-.63842l1.5322-1.80015-1.0038-1.20983.6457-.80796 1.0209 1.23897.88-1.03421c.4318-.50708.8722-1.17904 1.4429-1.52457h-14.1865v6.54827h3.31686c1.53723 0 2.23506-.9286 3.25539-2.18077l.96276-1.18145-1.60975-1.85757c-.38609-.57341.31271-1.16748.76679-.64525l1.4877 1.71154 1.37372-1.68562c.43722-.53678 1.15453.03478.78673.62031l-1.49082 1.83553 1.03125 1.18616-.64976.77737-1.02646-1.16963-.85605 1.05418c-.42018.517-.84551 1.1764-1.40831 1.5352h14.05285v-6.54827zm-10.93215 3.15397c0 1.4598-1.17817 2.6502-2.62299 2.6502-1.44519 0-2.623349-1.1904-2.623349-2.6502 0-1.46004 1.178159-2.65038 2.623349-2.65038 1.44482 0 2.62299 1.19034 2.62299 2.65038zm11.06245 2.6502c-1.4449 0-2.6234-1.1904-2.6234-2.6502 0-1.46004 1.1785-2.65038 2.6234-2.65038 1.445 0 2.6231 1.19034 2.6231 2.65038 0 1.4598-1.1781 2.6502-2.6231 2.6502z"/></g></g></svg>

<svg width="20" height="16" viewBox="0 0 20 16" fill="none" xmlns="http://www.w3.org/2000/svg">
<path fill-rule="evenodd" clip-rule="evenodd" d="M0 2.81071C0 2.36479 0.280215 2 0.622759 2H19.3772C19.7198 2 20 2.36479 20 2.81071V13.1893C20 13.6352 19.7198 14 19.3772 14H0.622759C0.280215 14 0 13.6352 0 13.1893V2.81071Z" fill="#F0A929"/>
<path fill-rule="evenodd" clip-rule="evenodd" d="M0 4H20V12H0V4Z" fill="white"/>
<path fill-rule="evenodd" clip-rule="evenodd" d="M16.9433 6.22731C16.0286 6.22731 15.283 6.98076 15.283 7.90492C15.283 8.82873 16.0286 9.58229 16.9433 9.58229C17.8579 9.58229 18.6036 8.82873 18.6036 7.90492C18.6036 6.98076 17.8579 6.22731 16.9433 6.22731Z" fill="#E21C2A"/>
<path fill-rule="evenodd" clip-rule="evenodd" d="M3.25785 6.22731C2.34305 6.22731 1.59729 6.98076 1.59729 7.90492C1.59729 8.82873 2.34305 9.58229 3.25785 9.58229C4.17224 9.58229 4.91802 8.82873 4.91802 7.90492C4.91802 6.98076 4.17224 6.22731 3.25785 6.22731Z" fill="#E21C2A"/>
<path fill-rule="evenodd" clip-rule="evenodd" d="M16.8132 4.75093C15.2761 4.71525 14.5535 5.711 13.5048 6.93916L12.5154 8.09752L14.0821 9.99236C14.4553 10.5746 13.7429 11.1524 13.301 10.6196L11.8525 8.87399L10.4411 10.5271C9.99165 11.0533 9.28739 10.4654 9.6686 9.88868L11.2008 8.08853L10.197 6.8787L10.8427 6.07074L11.8636 7.30971L12.7436 6.2755C13.1754 5.76842 13.6158 5.09646 14.1865 4.75093H0V11.2992H3.31686C4.85409 11.2992 5.55192 10.3706 6.57225 9.11843L7.53501 7.93698L5.92526 6.07941C5.53917 5.506 6.23797 4.91193 6.69205 5.43416L8.17975 7.1457L9.55347 5.46008C9.99069 4.9233 10.708 5.49486 10.3402 6.08039L8.84938 7.91592L9.88063 9.10208L9.23087 9.87945L8.20441 8.70982L7.34836 9.764C6.92818 10.281 6.50285 10.9404 5.94005 11.2992H19.9929V4.75093H16.8132ZM5.88105 7.9049C5.88105 9.3647 4.70288 10.5551 3.25806 10.5551C1.81287 10.5551 0.634711 9.3647 0.634711 7.9049C0.634711 6.44486 1.81287 5.25452 3.25806 5.25452C4.70288 5.25452 5.88105 6.44486 5.88105 7.9049ZM16.9435 10.5551C15.4986 10.5551 14.3201 9.3647 14.3201 7.9049C14.3201 6.44486 15.4986 5.25452 16.9435 5.25452C18.3885 5.25452 19.5666 6.44486 19.5666 7.9049C19.5666 9.3647 18.3885 10.5551 16.9435 10.5551Z" fill="#E21C2A"/>
</svg>
